X: 1
T: Miss Wedderburn
O: Atholl
R: reel
Z: 2019 John Chambers <jc:trillian.mit.edu>
B: Atholl Collection
S: handwritten MS in Concord Slow Jam collection
M: C|
L: 1/8
K: A
F \
| "A"E2EF "F#m"EFAc | "Bm"BAcB "D"AFFA \
| "A"E2EF "F#m"EFAc | "E7"BABc "A"A/A/A A :|
c \
| "D"d2fd "A"c2ec | "Bm"BAcB "D"AFFc \
| "D"d2fd "A"caec | "E7"BABc "A"A/A/A A |]
c \
| "D"dfdf "A"cece | "Bm"BAcB "D"AFFe \
|"(Bm)"fefg "D"abaf | "E7"ecBc "A"A/A/A A |]
